X:282
T: EIN DOERFCHEN NICHT WEIT ISTS VON HIER
N: E1425
O: Europa, Mitteleuropa, Deutschland, Hessen, Limburg; Wetterau
R: Staende -, Soldaten - Lied, Liebe
M: 6/8
L: 1/16
K: G
D2 | B3AG2G2A2B2 | A6z4
d2 | d3dd2e2d2c2 | B6z6
F4A2c4e2 | d8c2
B2 | c8B2A2 | B8A4
F4A2c4e2 | d8c2
B2 | c8A2d2 | B6z4

